;FLAVOR:Marlin
;TIME:596
;Filament used: 0.262064m
;Layer height: 0.1
;Generated with Cura_SteamEngine 1.2.1
M104 S220
M109 S220
G90
G28
M132 X Y Z A
G1 Z100 F3300
G1 X-110.5 Y-74 F6000
M6 T0
M907 X100 Y100 Z60 A100
G1 Z0.6 F3300
G4 P2000
M108 T0

;LAYER_COUNT:70
;LAYER:0
M107
M204 S5000
G0 F2592 X9.991 Y-10.976 Z0.125
M204 S3000
;TYPE:SKIRT
G1 F1080 X10.659 Y-10.936 E0.01391
G1 X11.317 Y-10.817 E0.02781
G1 X11.957 Y-10.62 E0.04173
G1 X12.568 Y-10.348 E0.05563
G1 X13.143 Y-10.005 E0.06955
G1 X13.672 Y-9.596 E0.08345
G1 X14.149 Y-9.127 E0.09736
G1 X14.567 Y-8.604 E0.11128
G1 X14.919 Y-8.036 E0.12517
G1 X15.201 Y-7.429 E0.13908
G1 X15.409 Y-6.793 E0.15299
G1 X15.539 Y-6.137 E0.16689
G1 X15.591 Y-5.376 E0.18275
G1 X15.591 Y5.377 E0.40628
G1 X15.551 Y6.045 E0.42019
G1 X15.432 Y6.703 E0.43409
G1 X15.235 Y7.343 E0.44801
G1 X14.963 Y7.954 E0.46191
G1 X14.62 Y8.528 E0.47581
G1 X14.211 Y9.058 E0.48973
G1 X13.742 Y9.535 E0.50363
G1 X13.22 Y9.953 E0.51753
G1 X12.651 Y10.305 E0.53144
G1 X12.044 Y10.587 E0.54536
G1 X11.408 Y10.795 E0.55927
G1 X10.752 Y10.925 E0.57317
G1 X9.991 Y10.977 E0.58902
G1 X-9.991 Y10.977 E1.0044
G1 X-10.659 Y10.937 E1.01831
G1 X-11.317 Y10.818 E1.03221
G1 X-11.957 Y10.621 E1.04613
G1 X-12.568 Y10.349 E1.06004
G1 X-13.142 Y10.006 E1.07394
G1 X-13.672 Y9.597 E1.08785
G1 X-14.149 Y9.128 E1.10176
G1 X-14.567 Y8.606 E1.11566
G1 X-14.919 Y8.037 E1.12957
G1 X-15.201 Y7.43 E1.14348
G1 X-15.409 Y6.794 E1.15739
G1 X-15.539 Y6.138 E1.17129
G1 X-15.591 Y5.377 E1.18715
G1 X-15.591 Y-5.377 E1.4107
G1 X-15.551 Y-6.045 E1.42461
G1 X-15.432 Y-6.703 E1.43851
G1 X-15.235 Y-7.343 E1.45243
G1 X-14.963 Y-7.954 E1.46633
G1 X-14.62 Y-8.528 E1.48023
G1 X-14.211 Y-9.058 E1.49415
G1 X-13.742 Y-9.535 E1.50806
G1 X-13.22 Y-9.953 E1.52196
G1 X-12.651 Y-10.305 E1.53587
G1 X-12.044 Y-10.587 E1.54978
G1 X-11.408 Y-10.795 E1.56369
G1 X-10.752 Y-10.925 E1.57759
G1 X-9.991 Y-10.977 E1.59345
G1 X9.991 Y-10.976 E2.00882
M204 S5000
G0 F2592 X9.991 Y-10.576
M204 S3000
G1 F1080 X10.635 Y-10.536 E2.02224
G1 X11.268 Y-10.417 E2.03563
G1 X11.882 Y-10.22 E2.04903
G1 X12.467 Y-9.949 E2.06243
G1 X13.014 Y-9.607 E2.07584
G1 X13.514 Y-9.201 E2.08923
G1 X13.96 Y-8.735 E2.10264
G1 X14.345 Y-8.218 E2.11604
G1 X14.664 Y-7.658 E2.12944
G1 X14.91 Y-7.062 E2.14284
G1 X15.081 Y-6.44 E2.15625
G1 X15.173 Y-5.802 E2.16965
G1 X15.191 Y-5.376 E2.17851
G1 X15.191 Y5.377 E2.40204
G1 X15.151 Y6.02 E2.41544
G1 X15.032 Y6.654 E2.42884
G1 X14.835 Y7.268 E2.44225
G1 X14.564 Y7.853 E2.45565
G1 X14.222 Y8.4 E2.46906
G1 X13.816 Y8.9 E2.48245
G1 X13.351 Y9.346 E2.49584
G1 X12.834 Y9.731 E2.50924
G1 X12.273 Y10.05 E2.52266
G1 X11.677 Y10.296 E2.53606
G1 X11.056 Y10.467 E2.54945
G1 X10.418 Y10.559 E2.56285
G1 X9.991 Y10.577 E2.57174
G1 X-9.991 Y10.577 E2.98711
G1 X-10.634 Y10.537 E3.00051
G1 X-11.268 Y10.418 E3.01392
G1 X-11.882 Y10.221 E3.02732
G1 X-12.467 Y9.95 E3.04072
G1 X-13.014 Y9.608 E3.05413
G1 X-13.514 Y9.202 E3.06752
G1 X-13.96 Y8.737 E3.08092
G1 X-14.345 Y8.22 E3.09431
G1 X-14.664 Y7.659 E3.10773
G1 X-14.91 Y7.063 E3.12113
G1 X-15.081 Y6.442 E3.13452
G1 X-15.173 Y5.804 E3.14792
G1 X-15.191 Y5.377 E3.15681
G1 X-15.191 Y-5.377 E3.38036
G1 X-15.151 Y-6.02 E3.39375
G1 X-15.032 Y-6.654 E3.40716
G1 X-14.835 Y-7.268 E3.42056
G1 X-14.564 Y-7.853 E3.43397
G1 X-14.222 Y-8.4 E3.44738
G1 X-13.816 Y-8.9 E3.46076
G1 X-13.351 Y-9.346 E3.47416
G1 X-12.834 Y-9.731 E3.48756
G1 X-12.273 Y-10.05 E3.50097
G1 X-11.677 Y-10.296 E3.51438
G1 X-11.056 Y-10.467 E3.52777
G1 X-10.418 Y-10.559 E3.54117
G1 X-9.991 Y-10.577 E3.55005
G1 X9.991 Y-10.576 E3.96543
M204 S5000
G0 F2592 X9.991 Y-10.176
M204 S3000
G1 F1080 X10.609 Y-10.136 E3.9783
G1 X11.217 Y-10.017 E3.99118
G1 X11.804 Y-9.82 E4.00405
G1 X12.362 Y-9.55 E4.01694
G1 X12.879 Y-9.21 E4.0298
G1 X13.349 Y-8.806 E4.04268
G1 X13.763 Y-8.345 E4.05556
G1 X14.113 Y-7.835 E4.06842
G1 X14.396 Y-7.283 E4.08132
G1 X14.605 Y-6.7 E4.09419
G1 X14.737 Y-6.095 E4.10706
G1 X14.791 Y-5.376 E4.12205
G1 X14.791 Y5.377 E4.34558
G1 X14.751 Y5.995 E4.35845
G1 X14.632 Y6.603 E4.37133
G1 X14.435 Y7.19 E4.3842
G1 X14.165 Y7.747 E4.39707
G1 X13.825 Y8.265 E4.40995
G1 X13.421 Y8.735 E4.42283
G1 X12.96 Y9.148 E4.4357
G1 X12.45 Y9.499 E4.44857
G1 X11.899 Y9.782 E4.46145
G1 X11.316 Y9.991 E4.47432
G1 X10.71 Y10.123 E4.48721
G1 X9.991 Y10.177 E4.5022
G1 X-9.991 Y10.177 E4.91758
G1 X-10.609 Y10.137 E4.93045
G1 X-11.217 Y10.018 E4.94333
G1 X-11.804 Y9.821 E4.9562
G1 X-12.361 Y9.551 E4.96907
G1 X-12.879 Y9.211 E4.98195
G1 X-13.349 Y8.807 E4.99484
G1 X-13.762 Y8.346 E5.0077
G1 X-14.113 Y7.836 E5.02057
G1 X-14.396 Y7.285 E5.03345
G1 X-14.605 Y6.702 E5.04632
G1 X-14.737 Y6.096 E5.05921
G1 X-14.791 Y5.377 E5.0742
G1 X-14.791 Y-5.377 E5.29775
G1 X-14.751 Y-5.995 E5.31063
G1 X-14.632 Y-6.603 E5.3235
G1 X-14.435 Y-7.19 E5.33638
G1 X-14.165 Y-7.747 E5.34924
G1 X-13.825 Y-8.265 E5.36212
G1 X-13.421 Y-8.735 E5.37501
G1 X-12.96 Y-9.148 E5.38787
G1 X-12.45 Y-9.499 E5.40074
G1 X-11.899 Y-9.782 E5.41362
G1 X-11.316 Y-9.991 E5.42649
G1 X-10.71 Y-10.123 E5.43939
G1 X-9.991 Y-10.177 E5.45438
G1 X9.991 Y-10.176 E5.86975
M204 S5000
G0 F2592 X9.991 Y-9.776
M204 S3000
G1 F1080 X10.583 Y-9.736 E5.88209
G1 X11.164 Y-9.617 E5.89442
G1 X11.723 Y-9.421 E5.90673
G1 X12.251 Y-9.151 E5.91906
G1 X12.738 Y-8.813 E5.93138
G1 X13.176 Y-8.412 E5.94372
G1 X13.555 Y-7.956 E5.95605
G1 X13.869 Y-7.454 E5.96836
G1 X14.114 Y-6.913 E5.9807
G1 X14.283 Y-6.345 E5.99302
G1 X14.374 Y-5.759 E6.00535
G1 X14.391 Y-5.376 E6.01332
G1 X14.391 Y5.377 E6.23685
G1 X14.351 Y5.969 E6.24918
G1 X14.232 Y6.549 E6.26149
G1 X14.036 Y7.109 E6.27382
G1 X13.766 Y7.637 E6.28615
G1 X13.428 Y8.124 E6.29848
G1 X13.027 Y8.561 E6.3108
G1 X12.572 Y8.941 E6.32313
G1 X12.069 Y9.255 E6.33545
G1 X11.529 Y9.5 E6.34778
G1 X10.96 Y9.669 E6.36012
G1 X10.375 Y9.76 E6.37243
G1 X9.991 Y9.777 E6.38042
G1 X-9.991 Y9.777 E6.79579
G1 X-10.583 Y9.737 E6.80813
G1 X-11.163 Y9.618 E6.82044
G1 X-11.723 Y9.422 E6.83277
G1 X-12.251 Y9.152 E6.8451
G1 X-12.738 Y8.814 E6.85742
G1 X-13.175 Y8.413 E6.86975
G1 X-13.555 Y7.958 E6.88207
G1 X-13.869 Y7.455 E6.8944
G1 X-14.114 Y6.915 E6.90673
G1 X-14.283 Y6.346 E6.91906
G1 X-14.374 Y5.761 E6.93137
G1 X-14.391 Y5.377 E6.93936
G1 X-14.391 Y-5.377 E7.16291
G1 X-14.351 Y-5.969 E7.17525
G1 X-14.232 Y-6.549 E7.18755
G1 X-14.036 Y-7.109 E7.19989
G1 X-13.766 Y-7.637 E7.21221
G1 X-13.428 Y-8.124 E7.22454
G1 X-13.027 Y-8.561 E7.23687
G1 X-12.572 Y-8.941 E7.24919
G1 X-12.069 Y-9.255 E7.26152
G1 X-11.529 Y-9.5 E7.27384
G1 X-10.96 Y-9.669 E7.28618
G1 X-10.375 Y-9.76 E7.29849
G1 X-9.991 Y-9.777 E7.30648
G1 X9.991 Y-9.776 E7.72186
M204 S5000
G0 F2592 X9.991 Y-9.376
M204 S3000
G1 F1080 X10.555 Y-9.336 E7.73361
G1 X11.108 Y-9.217 E7.74537
G1 X11.638 Y-9.021 E7.75712
G1 X12.136 Y-8.753 E7.76887
G1 X12.59 Y-8.416 E7.78062
G1 X12.993 Y-8.02 E7.79237
G1 X13.336 Y-7.57 E7.80413
G1 X13.611 Y-7.077 E7.81587
G1 X13.815 Y-6.549 E7.82763
G1 X13.942 Y-5.998 E7.83939
G1 X13.991 Y-5.376 E7.85236
G1 X13.991 Y5.377 E8.07589
G1 X13.951 Y5.941 E8.08764
G1 X13.832 Y6.494 E8.0994
G1 X13.636 Y7.024 E8.11115
G1 X13.368 Y7.521 E8.12288
G1 X13.032 Y7.976 E8.13464
G1 X12.635 Y8.379 E8.1464
G1 X12.185 Y8.721 E8.15815
G1 X11.692 Y8.997 E8.16989
G1 X11.164 Y9.201 E8.18166
G1 X10.614 Y9.328 E8.1934
G1 X9.991 Y9.377 E8.20639
G1 X-9.991 Y9.377 E8.62176
G1 X-10.555 Y9.337 E8.63352
G1 X-11.108 Y9.218 E8.64528
G1 X-11.638 Y9.022 E8.65702
G1 X-12.135 Y8.754 E8.66876
G1 X-12.59 Y8.418 E8.68052
G1 X-12.993 Y8.021 E8.69228
G1 X-13.335 Y7.571 E8.70403
G1 X-13.611 Y7.078 E8.71577
G1 X-13.815 Y6.55 E8.72754
G1 X-13.942 Y6 E8.73927
G1 X-13.991 Y5.377 E8.75226
G1 X-13.991 Y-5.377 E8.97581
G1 X-13.951 Y-5.941 E8.98757
G1 X-13.832 Y-6.494 E8.99933
G1 X-13.636 Y-7.024 E9.01107
G1 X-13.368 Y-7.521 E9.02281
G1 X-13.032 Y-7.976 E9.03457
G1 X-12.635 Y-8.379 E9.04633
G1 X-12.185 Y-8.721 E9.05808
G1 X-11.692 Y-8.997 E9.06982
G1 X-11.164 Y-9.201 E9.08159
G1 X-10.614 Y-9.328 E9.09332
G1 X-9.991 Y-9.377 E9.10631
G1 X9.991 Y-9.376 E9.52169
M204 S5000
G0 F2592 X9.991 Y-8.976
M204 S3000
G1 F1080 X10.526 Y-8.936 E9.53284
G1 X11.049 Y-8.817 E9.54399
G1 X11.548 Y-8.622 E9.55513
G1 X12.013 Y-8.354 E9.56629
G1 X12.433 Y-8.021 E9.57743
G1 X12.799 Y-7.629 E9.58858
G1 X13.103 Y-7.187 E9.59973
G1 X13.337 Y-6.704 E9.61088
G1 X13.497 Y-6.192 E9.62204
G1 X13.58 Y-5.663 E9.63317
G1 X13.591 Y-5.376 E9.63914
G1 X13.591 Y5.377 E9.86267
G1 X13.551 Y5.912 E9.87382
G1 X13.432 Y6.435 E9.88497
G1 X13.237 Y6.934 E9.89611
G1 X12.969 Y7.399 E9.90726
G1 X12.636 Y7.819 E9.9184
G1 X12.244 Y8.185 E9.92955
G1 X11.802 Y8.488 E9.94069
G1 X11.319 Y8.723 E9.95186
G1 X10.808 Y8.883 E9.96299
G1 X10.278 Y8.966 E9.97414
G1 X9.991 Y8.977 E9.98011
G1 X-9.991 Y8.977 E10.39549
G1 X-10.526 Y8.937 E10.40664
G1 X-11.049 Y8.818 E10.41779
G1 X-11.548 Y8.623 E10.42893
G1 X-12.013 Y8.355 E10.44008
G1 X-12.433 Y8.022 E10.45123
G1 X-12.799 Y7.63 E10.46237
G1 X-13.102 Y7.188 E10.47351
G1 X-13.337 Y6.705 E10.48468
G1 X-13.497 Y6.194 E10.49581
G1 X-13.58 Y5.664 E10.50696
G1 X-13.591 Y5.377 E10.51293
G1 X-13.591 Y-5.377 E10.73648
G1 X-13.551 Y-5.912 E10.74764
G1 X-13.432 Y-6.435 E10.75879
G1 X-13.237 Y-6.934 E10.76992
G1 X-12.969 Y-7.399 E10.78108
G1 X-12.636 Y-7.819 E10.79222
G1 X-12.244 Y-8.185 E10.80337
G1 X-11.802 Y-8.488 E10.81451
G1 X-11.319 Y-8.723 E10.82567
G1 X-10.808 Y-8.883 E10.83681
G1 X-10.278 Y-8.966 E10.84796
G1 X-9.991 Y-8.977 E10.85393
G1 X9.991 Y-8.976 E11.26931
M204 S5000
G0 F2592 X9.991 Y-8.576
M204 S3000
G1 F1080 X10.495 Y-8.536 E11.27982
G1 X10.987 Y-8.417 E11.29034
G1 X11.453 Y-8.222 E11.30084
G1 X11.883 Y-7.957 E11.31134
G1 X12.266 Y-7.626 E11.32186
G1 X12.592 Y-7.24 E11.33236
G1 X12.853 Y-6.807 E11.34287
G1 X13.043 Y-6.338 E11.35339
G1 X13.156 Y-5.846 E11.36389
G1 X13.191 Y-5.376 E11.37368
G1 X13.191 Y5.377 E11.59721
G1 X13.151 Y5.881 E11.60772
G1 X13.032 Y6.372 E11.61822
G1 X12.838 Y6.839 E11.62874
G1 X12.572 Y7.269 E11.63925
G1 X12.242 Y7.652 E11.64976
G1 X11.855 Y7.978 E11.66028
G1 X11.422 Y8.239 E11.67079
G1 X10.954 Y8.429 E11.68129
G1 X10.461 Y8.542 E11.6918
G1 X9.991 Y8.577 E11.7016
G1 X-9.991 Y8.577 E12.11697
G1 X-10.495 Y8.537 E12.12748
G1 X-10.986 Y8.418 E12.13799
G1 X-11.453 Y8.224 E12.1485
G1 X-11.883 Y7.958 E12.15901
G1 X-12.266 Y7.628 E12.16952
G1 X-12.592 Y7.241 E12.18004
G1 X-12.853 Y6.808 E12.19055
G1 X-13.043 Y6.34 E12.20105
G1 X-13.156 Y5.847 E12.21156
G1 X-13.191 Y5.377 E12.22136
G1 X-13.191 Y-5.377 E12.44491
G1 X-13.151 Y-5.881 E12.45542
G1 X-13.032 Y-6.372 E12.46592
G1 X-12.838 Y-6.839 E12.47643
G1 X-12.572 Y-7.269 E12.48694
G1 X-12.242 Y-7.652 E12.49745
G1 X-11.855 Y-7.978 E12.50797
G1 X-11.422 Y-8.239 E12.51848
G1 X-10.954 Y-8.429 E12.52898
G1 X-10.461 Y-8.542 E12.53949
G1 X-9.991 Y-8.577 E12.54929
G1 X9.991 Y-8.576 E12.96467
M204 S5000
G1 F1500 E10.96467
G0 F2592 X9.386 Y-6.051
G0 X9.386 Y-4.772
G0 X9 Y-4.386
M204 S3000
;TYPE:WALL-INNER
G1 F1500 E13.04782
G1 F1080 X9 Y4.386 E13.23017
G1 X-9 Y4.386 E13.60434
G1 X-9 Y-4.386 E13.78669
G1 X9 Y-4.386 E14.16087
M204 S5000
G0 F2592 X9.4 Y-4.786
M204 S3000
G1 F1080 X9.4 Y4.786 E14.35985
G1 X-9.4 Y4.786 E14.75065
G1 X-9.4 Y-4.786 E14.94963
G1 X9.4 Y-4.786 E15.34044
M204 S5000
G0 F2592 X9.8 Y-5.186
M204 S3000
;TYPE:WALL-OUTER
G1 F1080 X9.8 Y5.186 E15.55605
G1 X-9.8 Y5.186 E15.96349
G1 X-9.8 Y-5.186 E16.17909
G1 X9.8 Y-5.186 E16.58653
M204 S5000
G0 F2592 X9.8 Y-4.986
G0 X9.33 Y-4.716
G0 X8.8 Y-4.186
G0 X8.811 Y-4.198
G1 F1080 X8.528 Y-3.915 E16.59764
M204 S3000
;TYPE:SKIN
G1 X8.929 Y-3.515
M204 S5000
G0 F2592 X8.859 Y-3.02
M204 S3000
G1 F1080 X7.633 Y-4.246 E16.63368
G1 X7.563 Y-4.316
M204 S5000
G0 F2592 X7.067 Y-4.246
M204 S3000
G1 F1080 X8.859 Y-2.454 E16.68636
G1 X8.929 Y-2.384
M204 S5000
G0 F2592 X8.859 Y-1.888
M204 S3000
G1 F1080 X6.501 Y-4.246 E16.75568
G1 X6.431 Y-4.316
M204 S5000
G0 F2592 X5.936 Y-4.246
M204 S3000
G1 F1080 X8.859 Y-1.322 E16.84163
G1 X8.929 Y-1.252
M204 S5000
G0 F2592 X8.859 Y-.757
M204 S3000
G1 F1080 X5.37 Y-4.246 E16.9442
G1 X5.3 Y-4.316
M204 S5000
G0 F2592 X4.804 Y-4.246
M204 S3000
G1 F1080 X8.859 Y-.191 E17.06341
G1 X8.929 Y-.121
M204 S5000
G0 F2592 X8.859 Y0.374
M204 S3000
G1 F1080 X4.239 Y-4.246 E17.19923
G1 X4.169 Y-4.316
M204 S5000
G0 F2592 X3.673 Y-4.246
M204 S3000
G1 F1080 X8.859 Y0.939 E17.35167
G1 X8.929 Y1.009
M204 S5000
G0 F2592 X8.859 Y1.505
M204 S3000
G1 F1080 X3.107 Y-4.246 E17.52075
G1 X3.037 Y-4.316
M204 S5000
G0 F2592 X2.542 Y-4.246
M204 S3000
G1 F1080 X8.859 Y2.071 E17.70646
G1 X8.929 Y2.141
M204 S5000
G0 F2592 X8.859 Y2.636
M204 S3000
G1 F1080 X1.976 Y-4.246 E17.90879
G1 X1.906 Y-4.316
M204 S5000
G0 F2592 X1.41 Y-4.246
M204 S3000
G1 F1080 X8.859 Y3.202 E18.12776
G1 X8.929 Y3.272
M204 S5000
G0 F2592 X8.859 Y3.768
M204 S3000
G1 F1080 X0.844 Y-4.246 E18.36337
G1 X0.774 Y-4.316
M204 S5000
G0 F2592 X0.279 Y-4.246
M204 S3000
G1 F1080 X8.771 Y4.246 E18.61302
G1 X8.841 Y4.316
M204 S5000
G0 F2592 X8.205 Y4.246
M204 S3000
G1 F1080 X-.286 Y-4.246 E18.86266
G1 X-.356 Y-4.316
M204 S5000
G0 F2592 X-.852 Y-4.246
M204 S3000
G1 F1080 X7.64 Y4.246 E19.11231
G1 X7.71 Y4.316
M204 S5000
G0 F2592 X7.074 Y4.246
M204 S3000
G1 F1080 X-1.417 Y-4.246 E19.36194
G1 X-1.487 Y-4.316
M204 S5000
G0 F2592 X-1.983 Y-4.246
M204 S3000
G1 F1080 X6.508 Y4.246 E19.61157
G1 X6.578 Y4.316
M204 S5000
G0 F2592 X5.943 Y4.246
M204 S3000
G1 F1080 X-2.549 Y-4.246 E19.86122
G1 X-2.619 Y-4.316
M204 S5000
G0 F2592 X-3.114 Y-4.246
M204 S3000
G1 F1080 X5.377 Y4.246 E20.11086
G1 X5.447 Y4.316
M204 S5000
G0 F2592 X4.811 Y4.246
M204 S3000
G1 F1080 X-3.68 Y-4.246 E20.36049
G1 X-3.75 Y-4.316
M204 S5000
G0 F2592 X-4.246 Y-4.246
M204 S3000
G1 F1080 X4.246 Y4.246 E20.61014
G1 X4.316 Y4.316
M204 S5000
G0 F2592 X3.68 Y4.246
M204 S3000
G1 F1080 X-4.811 Y-4.246 E20.85977
G1 X-4.881 Y-4.316
M204 S5000
G0 F2592 X-5.377 Y-4.246
M204 S3000
G1 F1080 X3.114 Y4.246 E21.10941
G1 X3.184 Y4.316
M204 S5000
G0 F2592 X2.549 Y4.246
M204 S3000
G1 F1080 X-5.943 Y-4.246 E21.35905
G1 X-6.013 Y-4.316
M204 S5000
G0 F2592 X-6.508 Y-4.246
M204 S3000
G1 F1080 X1.983 Y4.246 E21.60869
G1 X2.053 Y4.316
M204 S5000
G0 F2592 X1.417 Y4.246
M204 S3000
G1 F1080 X-7.074 Y-4.246 E21.85832
G1 X-7.144 Y-4.316
M204 S5000
G0 F2592 X-7.64 Y-4.246
M204 S3000
G1 F1080 X0.852 Y4.246 E22.10797
G1 X0.922 Y4.316
M204 S5000
G0 F2592 X0.286 Y4.246
M204 S3000
G1 F1080 X-8.205 Y-4.246 E22.3576
G1 X-8.275 Y-4.316
M204 S5000
G0 F2592 X-8.771 Y-4.246
M204 S3000
G1 F1080 X-.279 Y4.246 E22.60725
G1 X-.209 Y4.316
M204 S5000
G0 F2592 X-.844 Y4.246
M204 S3000
G1 F1080 X-8.859 Y-3.768 E22.84286
G1 X-8.929 Y-3.838
M204 S5000
G0 F2592 X-8.859 Y-3.202
M204 S3000
G1 F1080 X-1.41 Y4.246 E23.06184
G1 X-1.34 Y4.316
M204 S5000
G0 F2592 X-1.976 Y4.246
M204 S3000
G1 F1080 X-8.859 Y-2.636 E23.26417
G1 X-8.929 Y-2.706
M204 S5000
G0 F2592 X-8.859 Y-2.071
M204 S3000
G1 F1080 X-2.542 Y4.246 E23.44988
G1 X-2.472 Y4.316
M204 S5000
G0 F2592 X-3.107 Y4.246
M204 S3000
G1 F1080 X-8.859 Y-1.505 E23.61896
G1 X-8.929 Y-1.575
M204 S5000
G0 F2592 X-8.859 Y-.939
M204 S3000
G1 F1080 X-3.673 Y4.246 E23.7714
G1 X-3.603 Y4.316
M204 S5000
G0 F2592 X-4.239 Y4.246
M204 S3000
G1 F1080 X-8.859 Y-.374 E23.90722
G1 X-8.929 Y-.444
M204 S5000
G0 F2592 X-8.859 Y0.191
M204 S3000
G1 F1080 X-4.804 Y4.246 E24.02643
G1 X-4.734 Y4.316
M204 S5000
G0 F2592 X-5.37 Y4.246
M204 S3000
G1 F1080 X-8.859 Y0.757 E24.129
G1 X-8.929 Y0.687
M204 S5000
G0 F2592 X-8.859 Y1.322
M204 S3000
G1 F1080 X-5.936 Y4.246 E24.21495
G1 X-5.866 Y4.316
M204 S5000
G0 F2592 X-6.501 Y4.246
M204 S3000
G1 F1080 X-8.859 Y1.888 E24.28427
G1 X-8.929 Y1.818
M204 S5000
G0 F2592 X-8.859 Y2.454
M204 S3000
G1 F1080 X-7.067 Y4.246 E24.33695
G1 X-6.997 Y4.316
M204 S5000
G0 F2592 X-7.633 Y4.246
M204 S3000
G1 F1080 X-8.859 Y3.02 E24.37299
G1 X-8.929 Y2.95
M204 S5000
G0 F2592 X-8.859 Y3.585
M204 S3000
G1 F1080 X-8.198 Y4.246 E24.39242
G1 X-8.128 Y4.316
M204 S5000
G0 F2592 X-8.764 Y4.246
M204 S3000
G1 F1080 X-8.859 Y4.151 E24.39521
M204 S5000
G0 F2592 X9 Y4.386
;TIME_ELAPSED:67.256919
;LAYER:1
G0 F4896 X9 Y4.386 Z0.225
M204 S3000
;TYPE:WALL-INNER
G1 F2340 X-9 Y4.386 E24.69456
G1 X-9 Y-4.386 E24.84044
G1 X9 Y-4.386 E25.13978
G1 X9 Y4.386 E25.28566
M204 S5000
G0 F4896 X9.4 Y4.786
M204 S3000
